flaticon/essential/next.svg

<svg xmlns="http://www.w3.org/2000/svg" width="32" height="32" viewBox="0 0 24 24">
    <path d="M 20.285156 0 C 19.96875 0 19.714844 0.253906 19.714844 0.570312 L 19.714844 10.910156 L 4.039062 0.101562 C 3.863281 -0.0195312 3.636719 -0.03125 3.449219 0.0664062 C 3.261719 0.164062 3.144531 0.359375 3.144531 0.570312 L 3.144531 23.429688 C 3.144531 23.640625 3.261719 23.835938 3.449219 23.933594 C 3.53125 23.976562 3.625 24 3.714844 24 C 3.828125 24 3.941406 23.964844 4.039062 23.898438 L 19.714844 13.089844 L 19.714844 23.429688 C 19.714844 23.746094 19.96875 24 20.285156 24 C 20.601562 24 20.855469 23.746094 20.855469 23.429688 L 20.855469 0.570312 C 20.855469 0.253906 20.601562 0 20.285156 0 Z M 4.285156 22.339844 L 4.285156 1.660156 L 19.28125 12 Z M 4.285156 22.339844"/>
</svg>

<svg xmlns="http://www.w3.org/2000/svg" width="32" height="32" viewBox="0 0 24 24">
    <path d="M20.285 0a.568.568 0 0 0-.57.57v10.34L4.039.102a.572.572 0 0 0-.894.468v22.86a.569.569 0 0 0 .894.468L19.715 13.09v10.34c0 .316.254.57.57.57.317 0 .57-.254.57-.57V.57a.568.568 0 0 0-.57-.57zm-16 22.34V1.66L19.281 12zm0 0"/>
</svg>
